X:944032
T:The Sound of Silence 3Voice P2
H: 
B: https://musescore.com/georgewu/ptxsoundofsilence, https://musescore.com/abchords321/scores/5449091
C:Simon and Garfunkel (Pentatonix / disturbed)
O:Transcribed by Kevin Fraser
Z:Kevin Fraser
Q:1/4=90
K:AMix
%K:AMix sound=A_b
%K:{g}B{d}BMix score=_{g}B{e}A %concert Pitch
M:4/4
L:1/8
U: R = ///
U: r = //
I:MIDI=program 110
% I:linebreak $
%%MIDI gracedivider 100
V:M gstem=up stem=down name="Melody" sname=Melody
V:1 gstem=up stem=down name="Chord" sname=Ch
V:2 gstem=up stem=down name="Bass" sname=Bass 
V:3 gstem=up stem=down name="Piper 3" sname=P3 
V:4 gstem=up stem=down name="Piper 4" sname=P4 
V:BB gstem=up stem=down name="Brass Bass" sname="ABCD-C" transpose=-1  octave=-1 clef=bass
V:BC gstem=up stem=down name="Brass Chord" sname="ABCD-D" transpose=-1
V:BD gstem=up stem=down name="Brass Chord 2" sname="ABCD-B" transpose=-1
V:P gstem=up stem=down name="Piano" octave=-1
% %landscape off
%%landscape 
%%score {M 1 2}
% %barsperstaff 4
[V:M]                [| A2                  {g}A{d}A {g}c{d}c {g}e{G}e | {gde}d8-                                                       | d2                   {g}G{d}G {g}B{d}B {g}d{e}d | {gcd}c8-                                  | cA                        {g}A{d}A {g}c{d}c {g}e{G}e | $ 
[V:1]                [| f2                  {g}A{d}A {g}c{d}c {g}e{G}e | f8-                                                            | d2                   {g}G{d}G {g}B{d}B {g}d{e}d | {gef}e4                   {gcd}c4-        | {gef}e4                   {g}c{d}c {g}e{G}e          |$ 
[V:2]                [| {gfg}f4             {AGAG}A4                   | {g}A4{g}B4                                                     | A8                                              | A4                        G4              | A4                        G2 {g}A2                   | $ 
% %barsperstaff 4
[V:M]                {g}f2{A}f{g}e-e4-                   | e2              {g}A{d}A {g}c{d}c {g}e{G}e |  {g}f2{A}f{g}e-e4-                           |  [M:2/4]e2           {g}A{d}A                   |[M:4/4]                           {g}f2 {g}ff- f2 {g}fg        | $
[V:1]                d2{g}dc-           c4               | c2              e2 {g}c{d}c c2             |  d2                      {g}dc- c4           |  [M:2/4]ed           c2                         |[M:4/4]                           {AGAG}A4- d2{g}de            | $
[V:2]                {g}A8                               | {g}A8                                      |  d2                      A6                  |  [M:2/4]{AGAG}A4                                |[M:4/4]                           {gde}d4- {AGAG}A4            | $
% %barsperstaff 4
[V:M]                 {ag}a{g}a-           a2 {f}gf- f{gef}e-         | e4-                       eA {g}fe        | {gcd}c8-                                             | [M:2/4]cA          {g}A{d}A         | [M:4/4]{gef}e6- eG                         |  {g}A                    f7                  |] $
[V:1]                 f2{g}f{g}f           {g}e{g}d- d{gcd}c-         | c6-                       {g}c2           | {g}f3G{g}A2{g}f2                                     | [M:2/4]{AGAG}A4                     | [M:4/4]{g}c8                               |  {g}Ac                   {g}Bd {g}Ac {g}GB   |] $
[V:2]                 {g}A8                                           | {g}A4                     {g}A4           | {g}A3B{g}A2{d}c2                                     | [M:2/4]{gef}e4                      | [M:4/4]{g}A8                               |  {g}c2                   {g}d2 {g}c2 {g}B2   |] $
W: Use Gracenotes or Strikes to separate repeated notes that don't have gracenote separators.

w:        In rest-less dreams I walked a-|lone     |     narrow streets of cobble  | stone   |  beneath the ha-lo    of a   |
w:         street lamp     | I turned my collar to the     | cold and damp  |           When my  |$
w:    |        eyes  were stabbed by the|flash of  a  ne-on  light   | that  split the | night          |       and touched the| sound of    | silence             |] $

